!!!COM: Scriabin, Alexander
!!!OTL@@FR: Prelude
!!!OTL@@EN:
!!!OPR@@FR: 4 Preludes
!!!OPR@@EN:
!!!OPS: 22
!!!ONM: 2
!!!ODT: 1897
!!!AGN: Prelude
**kern	**kern	**dynam
*staff2	*staff1	*staff1/2
*Ipiano	*Ipiano	*
*clefF4	*clefG2	*
*k[f#c#g#d#]	*k[f#c#g#d#]	*
*c#:	*c#:	*
*M6/8	*M6/8	*
=1	=1	=1
*^	*^	*
[4.e	8c#L	8eeL	4.g#	.
.	8B#X	8gg#	.	.
.	8BnJ	8dd#J	.	.
4e]	4.A#X	8cc##XL	4g#	.
.	.	8aa#X	.	.
8e	.	8cc#XJ	8g#	.
=2	=2	=2	=2	=2
8.eL	8.AnL	8cc#L	8.aL	.
.	.	8ee	.	.
8.c#J	8.G#J	.	8.eJ	.
.	.	8bJ	.	.
8eL	4.F##X	8dd#L	8aL	.
8c#	.	8a	8e	.
8AJ	.	8cc#J	8c#J	.
=3	=3	=3	=3	=3
2.A	8F#L	8aL	2.c#	.
.	8E#X	8cc#	.	.
.	8EnJ	8g#J	.	.
.	4.D#	8f##XL	.	.
.	.	8dd#	.	.
.	.	8cc#J	.	.
=4	=4	=4	=4	=4
8G#	8E	4.cc#	2.c#	.
4rc	8CC#L	.	.	.
.	8GG#J	.	.	.
4.rc	8D#L	4.g#	.	.
.	8E	.	.	.
.	8G#J	.	.	.
=5	=5	=5	=5	=5
[4.e	8c#L	8eeL	4.g#	.
.	8B#X	8gg#	.	.
.	8BnJ	8dd#J	.	.
4e]	4.A#X	8cc##XL	4g#	.
.	.	8aa#X	.	.
8e	.	8cc#XJ	8g#	.
=6	=6	=6	=6	=6
8.eL	8.AnL	8cc#L	8.aL	.
.	.	8ee	.	.
8.c#J	8.G#J	.	8.eJ	.
.	.	8bJ	.	.
8.eL	4.F##X	8dd#L	8.aL	.
.	.	8a	.	.
8.c#J	.	.	8.eJ	.
.	.	8cc#J	.	.
=7	=7	=7	=7	=7
4.c#	4F#	8aL	4.e	.
.	.	8b	.	.
.	8G#	8g#J	.	.
4c#	4.A	8f#L	4e	.
.	.	8cc#	.	.
8d#	.	16r	8f#	.
.	.	16bJk	.	.
=8	=8	=8	=8	=8
8e	8G#	4.b	4.g#	.
4rc	8EEL	.	.	.
.	8BBJ	.	.	.
4.rc	8F#L	4.e	4.rc	.
.	8G#	.	.	.
.	8BJ	.	.	.
=9	=9	=9	=9	=9
*	*	*	*^	*
8BL	2.E	4.raa	2.g#	8r	.
8c#	.	.	.	8a#X/L	.
8BJ	.	.	.	8b/J	.
4.A#X	.	8raa	.	8b#X\L	.
.	.	8gg#L	.	8cc#\	.
.	.	8aa#XJ	.	8cc##X\J	.
=10	=10	=10	=10	=10	=10
4.A#X	4.D#	8aa#XL	4.f##X	8dd#\	.
.	.	8ff##X	.	4r	.
.	.	8cc##XJ	.	.	.
8c#XL	4.A#	8eeL	4.f##	4.r	.
8d#	.	8dd#	.	.	.
8eJ	.	8ddnJ	.	.	.
=11	=11	=11	=11	=11	=11
8eL	2.An	4.raa	4.an 4.cc#X	8r	.
8f#	.	.	.	8dd#X\L	.
8eJ	.	.	.	8ee\J	.
4.d#	.	8raa	4.cc#	8ee#X\L	.
.	.	8ccc#L	.	8ff#\	.
.	.	8ddd#J	.	8ff##X\J	.
=12	=12	=12	=12	=12	=12
4.d#	2.G#	8ddd#L	4.b#X	8gg#\	.
.	.	8bb#X	.	4r	.
.	.	8ff##XJ	.	.	.
4.f#X	.	8aaL	4.b#	4.r	.
.	.	8gg#	.	.	.
.	.	8dd#J	.	.	.
*	*	*	*v	*v	*
=13	=13	=13	=13	=13
4.e	8c#L	8eeL	4.g#	.
.	8B#X	8gg#	.	.
.	8BnJ	8dd#J	.	.
4e	4.A#X	8cc##XL	4g#	.
.	.	8aa#X	.	.
8e	.	8cc#XJ	8g#	.
=14	=14	=14	=14	=14
8.eL	8.AnL	8cc#L	8.aL	.
.	.	8ee	.	.
8.c#J	8.G#J	.	8.eJ	.
.	.	8bJ	.	.
8eL	4.F##X	8dd#L	8aL	.
8c#	.	8a	8e	.
8AJ	.	8cc#J	8c#J	.
=15	=15	=15	=15	=15
[4.A	8F#L	8aL	4.c#	.
.	8E#X	8cc#	.	.
.	8EnJ	8g#J	.	.
4A]	4.D#	8f##XL	4c#	.
.	.	8dd#	.	.
8A	.	8f#XJ	8c#	.
=16	=16	=16	=16	=16
8.AL	8.DnL	8f#L	8.dnL	.
.	.	8a	.	.
8.F#J	8.C#J	.	8.AJ	.
.	.	8eJ	.	.
8AL	4.BB#X	8g#L	8dL	.
8F#	.	8d	8A	.
8DJ	.	8f#J	8F#J	.
=17	=17	=17	=17	=17
4.Dn	8BBnL	8dnL	4.F#	.
.	8AA#X	8f#	.	.
.	8AAnJ	8c#J	.	.
4D	4.GG#	8B#XL	4.F#	.
.	.	8g#	.	.
8D#X	.	16r	.	.
.	.	16g#Jk	.	.
=18	=18	=18	=18	=18
4.E	8GG#L	4.g#	4.E 4.c#	.
.	8CC#	.	.	.
.	8GG#J	.	.	.
4.rc	8D#L	4.raa	4.rc	.
.	8F#	.	.	.
.	8EJ	.	.	.
=19	=19	=19	=19	=19
4.Dn	4.AA	8dnL	4.F#	.
.	.	8f#	.	.
.	.	8c#J	.	.
4D	4.GG#	8B#XL	4.F#	.
.	.	8g#	.	.
8D#X	.	16r	.	.
.	.	16g#Jk	.	.
*	*	*v	*v	*
=20	=20	=20	=20
8E	8GG#	2.E 2.c# 2.g#	.
4rc	[8CC#L	.	.
.	8CC#J_ [8GG#	.	.
4.rc	4.CC#] 4.GG#] 4.E	.	.
*v	*v	*	*
==	==	==
*-	*-	*-
!!!system-decoration: {(*)}
!!!ENC: Bryan Jacob Bell
!!!END: November 2021 to April 2022
!!!PED: Konstantin Igumnov and Yakov Milstein
!!!PTL: A.N. Skryabin: Polnoe sobranie sochinenii dlia fortepiano (Muzgiz)
